X:702
T: GUTER FREUND ICH FRAGE DICH
N: E2131
O: Europa, Mitteleuropa, Deutschland, Hessen, Unter - Taunus, Wuerges
R: geistliches Lied, Curiosum
M: 2/4
L: 1/16
K: Bb
 | B3BB2B2 | A3GF4
G3GG2B2 | F3ED4
B3cd2d2 | c4B4
c2c2c2c2 | B3cd4
B2B2e4 | c2c2d2
B2 | B2B2e2c2 | c4B2z2

